Sources/FrostedUI/Resources/Icons.xcassets/cursor32.imageset/cursor-32.svg

<svg width="32" height="32" viewBox="0 0 32 32" fill="none" xmlns="http://www.w3.org/2000/svg" data-fui-icon="true">
  <path
    d="M2.95251 6.88909C2.08557 4.4434 4.44335 2.08562 6.88904 2.95257L27.9926 10.436C30.651 11.379 30.752 15.1017 28.1488 16.1879L22.7845 18.4242L27.347 22.9867C28.5509 24.1909 28.551 26.1431 27.347 27.3471C26.143 28.5511 24.1908 28.551 22.9867 27.3471L18.4242 22.7856L16.1879 28.1489C15.1017 30.752 11.379 30.6511 10.4359 27.9926L2.95251 6.88909ZM6.38806 4.36663C5.13205 3.92125 3.9212 5.1321 4.36658 6.38811L11.85 27.4907C12.3342 28.8556 14.2452 28.9084 14.8031 27.5717L17.472 21.1752L17.5131 21.0912C17.6202 20.904 17.8043 20.7704 18.0189 20.728C18.2639 20.6798 18.517 20.7566 18.6937 20.933L24.0472 26.2866C24.6656 26.9046 25.6683 26.9048 26.2865 26.2866C26.9047 25.6683 26.9045 24.6656 26.2865 24.0473L20.933 18.6948C20.7562 18.518 20.6796 18.2642 20.7279 18.019C20.7764 17.7736 20.9443 17.5684 21.1752 17.4721L27.5717 14.8032C28.9083 14.2453 28.8556 12.3343 27.4906 11.85L6.38806 4.36663Z"
    fill="currentColor"
  />
</svg>

<svg xmlns="http://www.w3.org/2000/svg" width="32" height="32" fill="none" data-fui-icon="true" viewBox="0 0 32 32"><path fill="currentColor" d="M2.953 6.89c-.867-2.447 1.49-4.804 3.936-3.937l21.104 7.483c2.658.943 2.759 4.666.156 5.752l-5.364 2.236 4.562 4.563a3.084 3.084 0 0 1-4.36 4.36l-4.563-4.561-2.236 5.363c-1.086 2.603-4.809 2.502-5.752-.156zm3.435-2.523c-1.256-.446-2.467.765-2.021 2.021l7.483 21.103c.484 1.365 2.395 1.417 2.953.08l2.669-6.396.041-.084a.75.75 0 0 1 1.18-.158l5.354 5.354a1.584 1.584 0 0 0 2.24-2.24l-5.354-5.352a.75.75 0 0 1 .242-1.223l6.397-2.669c1.336-.558 1.284-2.469-.081-2.953z"/></svg>
